X:1
T:Beautiful Robe and Crown
T:Beautiful Robe and Crown
T:Daniel Webster Crist
T:Eden Reeder Latta, 1894
T:Public Domain Courtesy of the Cyber Hymnal™
T:Public Domain Courtesy of the Cyber Hymnal™
C:Daniel Webster Crist
Z:Public Domain
Z:Courtesy of the Cyber Hymnal™
%%score ( 1 2 ) ( 3 4 )
L:1/8
Q:1/4=115
M:12/8
K:D
V:1 treble 
V:2 treble 
V:3 bass 
V:4 bass 
V:1
 [DF][DE]D | [FA]3 [FA]3 [FA]3 [DF][DE]D | [DB]3 [GB]3 [GB]3 [Bd][Ac][GB] | %3
w: 1.~Plea- sures that|earth can give Ne- ver are|un- al- loyed, Like to the|
w: 2.~Fa- shion’s a-|dorn- ments are Ev- er with|mon- ey bought, Heav- en- ly|
w: 3.~Land of the|white- robed throng And of the|harp and palm, Af- ter the|
 [FA]3 [FA]3 [FA]3 [FA][EG][DF] | [CE]3 [DF]3 [EG]3 [DF][DE]D | [FA]3 [FA]3 [FA]3 [DF][DE]D | %6
w: hap- pi- ness That is in|Heav’n en- joyed! What are earth’s|gar- ments gay, Oft- en so|
w: gar- ments bright, On- ly by|faith are sought! What are the|mines of earth? What is the|
w: storms of life Thine is a|bless- èd calm! There may our|ev- ery name Sure- ly be|
 [DB]3 [GB]3 [GB]3 [Bd][Ac][GB] | [FA]3 [FA]3 [Fd]3 [Fd][Ec][Fd] | [Ge]3 [Gc]3 !fermata![Fd]3 || %9
w: proud- ly shown? No- thing com-|pared to you, Beau- ti- ful|robe and crown!|
w: world’s re- nown? No- thing com-|pared to you, Beau- ti- ful|robe and crown!|
w: writ- ten down! Striv- ing are|we for you, Beau- ti- ful|robe and crown!|
"^Refrain" [Fd][Ec][Fd] | [Ge]6- [Ge]3 [Ge][Fd][Ec] | [Fd]6- [Fd]3 [Fd][Ec][Fd] | %12
w: |||
w: Beau- ti- ful|robe! * Beau- ti- ful|crown! * Beau- ti- ful|
w: |||
 [GB]6- [GB]3 [GB][Ac][GB] | [FA]6- [FA]3 | [DF][DE]D | [FA]3 [FA]3 [FA]3 [DF][DE]D | %16
w: ||||
w: robe! * Beau- ti- ful|crown! *|What are the|mines of earth? What is the|
w: ||||
 [DB]3 [GB]3 [GB]3 [Bd][Ac][GB] | [FA]3 [FA]3 [Fd]3 [Fd][Ec][Fd] | [Ge]3 [Gc]3 !fermata![Fd]3 |] %19
w: |||
w: world’s re- nown? No- thing com-|pared to you, Beau- ti- ful|robe and crown!|
w: |||
V:2
 x2 D | x11 D | x12 | x12 | x11 D | x11 D | x12 | x12 | x9 || x3 | x12 | x12 | x12 | x9 | x2 D | %15
 x11 D | x12 | x12 | x9 |] %19
V:3
 [D,A,][D,G,][D,F,] | [D,D]3 [D,D]3 [D,D]3 [D,A,][D,G,][D,F,] | G,3 [G,D]3 [G,D]3 [G,D][G,D][G,D] | %3
w: ~ ~ ~|~ ~ ~ ~ ~ ~|~ ~ ~ ~ ~ ~|
 [D,D]3 [D,D]3 [D,D]3 [D,D][D,A,][D,A,] | [A,,A,]3 [A,,A,]3 [A,,A,]3 [D,A,][D,G,][D,F,] | %5
w: ~ ~ ~ ~ ~ ~|~ ~ ~ ~ ~ ~|
 [D,D]3 [D,D]3 [D,D]3 [D,A,][D,G,][D,F,] | G,3 [G,D]3 [G,D]3 [G,D][G,D][G,D] | %7
w: ~ ~ ~ ~ ~ ~|~ ~ ~ ~ ~ ~|
 [D,D]3 [D,D]3 [D,A,]3 [D,A,][D,A,][D,A,] | [A,,A,]3 [A,,A,]3 !fermata![D,A,]3 || z3 | %10
w: ~ ~ ~ ~ ~ ~|~ ~ ~||
 z3 [A,C][A,C][A,C] [A,C]3 z3 | z3 [D,A,][D,A,][D,A,] [D,A,]3 z3 | z3 [G,D][G,D][G,D] [G,D]3 z3 | %13
w: Beau- ti- ful robe!|Beau- ti- ful crown!|Beau- ti- ful robe!|
 z3 [D,D][D,D][D,D] [D,D]3 | [D,A,][D,G,][D,F,] | [D,D]3 [D,D]3 [D,D]3 [D,A,][D,G,][D,F,] | %16
w: Beau- ti- ful crown!|||
 G,3 [G,D]3 [G,D]3 [G,D][G,D][G,D] | [D,D]3 [D,D]3 [D,A,]3 [D,A,][D,A,][D,A,] | %18
w: ||
 [A,,A,]3 [A,,A,]3 !fermata![D,A,]3 |] %19
w: |
V:4
 x3 | x12 | G,3 x9 | x12 | x12 | x12 | G,3 x9 | x12 | x9 || x3 | x12 | x12 | x12 | x9 | x3 | x12 | %16
 G,3 x9 | x12 | x9 |] %19

